icons/solid/file-search.svg

<svg width="24" height="24" viewBox="0 0 24 24" fill="none" xmlns="http://www.w3.org/2000/svg">
<path fill-rule="evenodd" clip-rule="evenodd" d="M3 19C3 20.6569 4.34315 22 6 22H18C19.6569 22 21 20.6569 21 19V8.82843C21 8.03278 20.6839 7.26972 20.1213 6.70711L16.2929 2.87868C15.7303 2.31607 14.9672 2 14.1716 2H6C4.34315 2 3 3.34315 3 5V19ZM10 14.5C10 13.6716 10.6716 13 11.5 13C12.3284 13 13 13.6716 13 14.5C13 14.9145 12.8332 15.2881 12.5607 15.5607C12.2881 15.8332 11.9145 16 11.5 16C10.6716 16 10 15.3284 10 14.5ZM11.5 11C9.567 11 8 12.567 8 14.5C8 16.433 9.567 18 11.5 18C12.1024 18 12.6698 17.8473 13.1649 17.5791L14.2929 18.7071C14.6834 19.0976 15.3166 19.0976 15.7071 18.7071C16.0976 18.3166 16.0976 17.6834 15.7071 17.2929L14.5791 16.1649C14.8473 15.6698 15 15.1024 15 14.5C15 12.567 13.433 11 11.5 11Z" fill="currentColor"/>
</svg>

<svg width="24" height="24" fill="none" xmlns="http://www.w3.org/2000/svg"><path fill-rule="evenodd" clip-rule="evenodd" d="M3 19a3 3 0 003 3h12a3 3 0 003-3V8.828a3 3 0 00-.879-2.12l-3.828-3.83A3 3 0 0014.172 2H6a3 3 0 00-3 3v14zm7-4.5a1.5 1.5 0 113 0 1.5 1.5 0 01-3 0zm1.5-3.5a3.5 3.5 0 101.665 6.58l1.128 1.127a1 1 0 001.414-1.414l-1.128-1.128A3.5 3.5 0 0011.5 11z" fill="currentColor"/></svg>
